X: 2410
T: OLD MAN'S DANCE
Q: "Slow Hornpipe."
R: hornpipe
B: James Kerr "Merry Melodies" v.2 p.46 #410
Z: 2016 John Chambers <jc:trillian.mit.edu>
M: C
L: 1/8
K: Am
|:\
A2E2 A2B2 | c2de f4 |\
e>dc>e d>cB>d |[1,3 c>BA>c B>^GE2 :|[2,4 c>AB>^G A4 ::\
E2e>d c>BA2 |
E2e>d c>B A2 |\
g2-g>f e>fg2 | d>ed>c B>cd2 |\
E2e>d c>BA2 | E2e>d c>BA2 |\
A2B2 c2d2 |[1 e2e/e/e e2e2 :|[2 e2z2 e4 |]
